X:68
T:Pernod Waltz C:Johnny Cunningham
M:3/4
K:Bm
"Bm"f2Bc de|"Bm"f4f2|"B7"fe ^de fg|"Em"f2e2(3efg|"A"a2g2f2|
"A#o"e2c4|"F#7"cd ef ec|1"Bm"d2Bc de:|2"Bm"d2B4:|
"Em"Be eg ge|"Em"Be eg ge|"A7"a2 (3efg fe|"D"fed4|"G"GB Bd cB|"Bm"FB Bd
cB|"F#7"cd ef ec|"Bm"d2B4:|
